assets/Hook/Flat/hook_flat.svg

<svg width="32" height="32" viewBox="0 0 32 32" fill="none" xmlns="http://www.w3.org/2000/svg">
<path d="M14.997 6.00001C14.9981 6.56738 14.8781 7.12843 14.6452 7.64576C14.4122 8.16309 14.0716 8.6248 13.646 9.00001C13.1741 9.57142 12.8822 10.2698 12.807 11.007L12.747 22.007C12.7058 22.8842 12.9302 23.7534 13.391 24.501C13.7407 25.0127 14.22 25.4223 14.7799 25.688C15.4764 26.0241 16.2335 26.2162 17.006 26.2529C17.8814 26.2936 18.7488 26.0695 19.495 25.61C20.0058 25.2593 20.4152 24.7802 20.682 24.221C20.925 23.7258 21.0934 23.1974 21.182 22.653C21.2182 22.4409 21.2415 22.2269 21.252 22.012C21.2242 21.5401 21.1057 21.078 20.903 20.651C20.352 19.411 20.011 19.589 20.158 17.932C20.165 17.86 20.1709 17.7849 20.1779 17.7059C20.1834 17.4847 20.1353 17.2656 20.0376 17.067C19.9399 16.8685 19.7956 16.6966 19.617 16.566C19.422 16.377 19.252 16.211 19.252 16.007C19.252 16.007 19.252 15.507 20.002 15.507C21.002 15.507 22.7599 16.939 23.4619 18.043C24.2576 19.2627 24.7032 20.6774 24.75 22.1329C24.7346 22.5016 24.6962 22.8691 24.635 23.233C24.4901 24.1211 24.2144 24.9828 23.817 25.79C23.2786 26.8943 22.4596 27.8377 21.442 28.526C20.1186 29.3717 18.5719 29.8005 17.002 29.757C15.6887 29.7218 14.3986 29.4032 13.2199 28.823C12.1155 28.2844 11.172 27.4651 10.484 26.447C9.63785 25.1238 9.20865 23.577 9.25199 22.007L9.30496 10.863C9.18154 10.1829 8.86695 9.55189 8.39798 9.04402C7.888 8.60781 7.49596 8.05027 7.25797 7.4228C7.01997 6.79533 6.94368 6.11807 7.0361 5.45338C7.12853 4.78868 7.38669 4.15795 7.78684 3.61921C8.18699 3.08047 8.71625 2.65102 9.3259 2.37049C9.93554 2.08996 10.6059 1.96737 11.2754 2.01393C11.9449 2.06048 12.5919 2.27471 13.1568 2.63691C13.7218 2.99911 14.1865 3.49762 14.5083 4.08656C14.83 4.67549 14.9984 5.33588 14.998 6.00697L14.997 6.00001ZM10.997 8.00001C11.3925 8.00001 11.7792 7.88268 12.1081 7.66291C12.437 7.44315 12.6933 7.13084 12.8447 6.76539C12.9961 6.39994 13.0357 5.99777 12.9585 5.60981C12.8814 5.22185 12.6909 4.86547 12.4112 4.58576C12.1315 4.30606 11.7751 4.11557 11.3872 4.0384C10.9992 3.96123 10.5971 4.00086 10.2316 4.15223C9.86615 4.30361 9.55378 4.55997 9.33402 4.88886C9.11425 5.21776 8.99698 5.60445 8.99698 6.00001C8.99698 6.53044 9.20766 7.03912 9.58273 7.41419C9.95781 7.78927 10.4665 8.00001 10.997 8.00001Z" fill="#F9C23C"/>
</svg>

<svg xmlns="http://www.w3.org/2000/svg" width="32" height="32" fill="none"><path fill="#F9C23C" d="M14.997 6a3.99 3.99 0 0 1-1.351 3 3.75 3.75 0 0 0-.839 2.007l-.06 11a4.363 4.363 0 0 0 .644 2.494 3.5 3.5 0 0 0 1.389 1.187 5.75 5.75 0 0 0 2.226.565 4.36 4.36 0 0 0 2.489-.643c.51-.35.92-.83 1.187-1.389a5.602 5.602 0 0 0 .5-1.568c.036-.212.06-.426.07-.641a3.678 3.678 0 0 0-.349-1.361c-.551-1.24-.892-1.062-.745-2.719l.02-.226a1.37 1.37 0 0 0-.561-1.14c-.195-.189-.365-.355-.365-.559 0 0 0-.5.75-.5 1 0 2.758 1.432 3.46 2.536a7.953 7.953 0 0 1 1.288 4.09 8.864 8.864 0 0 1-.115 1.1 9.11 9.11 0 0 1-.818 2.557 7.014 7.014 0 0 1-2.375 2.736 7.842 7.842 0 0 1-4.44 1.231 9.117 9.117 0 0 1-3.782-.934 7.011 7.011 0 0 1-2.736-2.376 7.84 7.84 0 0 1-1.232-4.44l.053-11.144a3.64 3.64 0 0 0-.907-1.819 4 4 0 1 1 6.6-3.037L14.997 6Zm-4 2a2 2 0 1 0 0-4 2 2 0 0 0 0 4Z"/></svg>
